X:1
T:Title
%%score { ( 1 3 5 ) | ( 2 4 ) }
L:1/8
Q:1/4=108
M:4/4
K:G
V:1 treble nm="Grand Piano"
V:3 treble 
V:5 treble 
V:2 bass 
V:4 bass 
V:1
 G2 (3DDD G2 [DFA]2 | z4 d4- | d6 z2 | [DF]2[K:bass] [G,^CE]2 [F,D]4 | G2 (3DDD G2 [DFA]2 | %5
w: J.~H.~Rosecrans * * * * *|||||
 z4 d4- | d6 z2 | [DB]2 [DA]2 [B,DG]4 | [FA]2 [FA]2 [FA]>[EG] [DF]>[EG] | %9
w: ||||
 [FA]>[GB] [Ac]>[Fd] [GB]4 | [FA]2 [FA]2 [FA]>[=F^G] [^FA]>[=GB] | [Fc]>[Fd] [Fe]>d B4 | %12
w: |||
 B2 (3B_B=B d2 c2 | c2 (3cB[Fc] e2 d2 | G2 (3GFG [DGB]2 [CEA]2 | %15
w: |||
[M:7/8] [A,DF]2 [A,DF]/[A,DE][CDF]/ [G,B,DG]3 |[M:1/4] B>c |[M:4/4] d4 z4 |[M:3/4] c4 z2 | %19
w: ||||
[M:1/4] [FA]>[Ac] |[M:4/4] B>A G>B A>G [DF]>[^CE] |[M:3/4] D6[K:bass] |[M:1/4] D>[K:treble]D | %23
w: ||||
[M:4/4] G>G (3BAG [Fd]2 [FA]>[GB] |[M:7/8] [Ac]>[Ac][DAB]/AG/ [Ge]3 |[M:1/4] [EGc]>[Ge] | %26
w: |||
[M:4/4] d>d B>G D2 (3FG[CDA] |[M:3/4] [B,D]2 (3ED^C D2 |] %28
w: ||
V:2
 G,2 (3D,D,D, G,2 D,2 | G,>G, F,>E, z2 z B, | A,>B, C>B, A,>D, D,>G, | A,2 A,,2 D,4 | %4
 G,2 (3D,D,D, G,2 D,2 | G,>G, F,>E, z2 z B, | A,>B, C>B, A,>[D,A,D] [E,G,B,]>[C,G,] | %7
 [D,G,]2 [D,C]2 [G,,G,]4 | [D,D]2 [D,D]2 [D,D]>[D,A,] [D,A,]>[D,A,] | %9
 [D,D]>[D,D] [D,D]>[D,D] [G,D]4 | [D,D]2 [D,D]2 [D,D]>[D,D] [D,D]>[D,D] | %11
 [D,A,]>[D,B,] [D,C]>[F,A,D] [G,D]4 | [E,^G,E]2 (3[E,G,E][E,=G,E][E,^G,E] [A,E]2 E2 | %13
 [D,A,D]2 (3[D,A,D][D,^G,D][D,A,][K:treble] [=G,CG]2 [G,B,G]2 | %14
 [G,B,D]2 (3[G,B,D][G,A,D][K:bass][G,B,D] B,,2 C,2 |[M:7/8] D,2 D,/D,D,/ G,,3 | %16
[M:1/4][K:treble] [G,D]>[G,A,D] | %17
[M:4/4] [G,B,G]>[G,B,] (3[G,B,][G,B,][G,B,] [G,DG]2 (3:2:2[G,DG]2 [G,B,G] | %18
[M:3/4][K:bass] [D,A,]>[D,A,] (3[D,A,][D,A,][D,A,] [D,D]2 |[M:1/4] [D,D]>[D,D] | %20
[M:4/4][K:treble] [G,DG]>[G,CD] [G,B,D]>[G,DG] [A,DF]>[K:bass][A,E] [A,,A,]>[A,,G,] | %21
[M:3/4] F,2 (3G,G,G, A,2 |[M:1/4] [D,F,]>[F,A,] | %23
[M:4/4][K:treble] [G,B,D]>[G,B,D] (3[G,-DG-][G,CG][G,B,][K:bass] [D,A,]2 [D,D]>[D,D] | %24
[M:7/8] [D,D]>[D,D] z/ C[G,B,]/ [C,C]3 |[M:1/4] C,>[C,C] | %26
[M:4/4] [D,D]>[D,D] B,>G, D,2 (3[D,-A,D-][D,B,D]D, |[M:3/4] z2 (3CB,_B, =B,2 |] %28
V:3
 x8 | [DGB]>[DGB] [DA]>[DEG] [DF]3 G | F>G A>G F>[DGB] [DFA]>[B,DG] | x2[K:bass] x6 | x8 | %5
 [DGB]>[DGB] [DA]>[^CEG] [DF]3 G | F>G A>G F>F G>[Ec] | x8 | x8 | x8 | x8 | x8 | x8 | x8 | x8 | %15
[M:7/8] x7 |[M:1/4] x2 |[M:4/4] z z/ G/ (3GGG B2 (3BBd |[M:3/4] z z/ F/ (3FFF [FA]2 |[M:1/4] x2 | %20
[M:4/4] x8 |[M:3/4] z2[K:bass] (3B,B,B, C2 |[M:1/4] x3/2[K:treble] x/ |[M:4/4] x8 |[M:7/8] x7 | %25
[M:1/4] x2 |[M:4/4] x8 |[M:3/4] [G,G]6 |] %28
V:4
 x8 | z4 D,4- | D,6 z2 | x8 | x8 | z4 D,4- | D,6 z2 | x8 | x8 | x8 | x8 | x8 | x8 | %13
 x4[K:treble] x4 | x10/3[K:bass] x14/3 |[M:7/8] x7 |[M:1/4][K:treble] x2 |[M:4/4] x8 | %18
[M:3/4][K:bass] x6 |[M:1/4] x2 |[M:4/4][K:treble] x11/2[K:bass] x5/2 |[M:3/4] D,6 |[M:1/4] x2 | %23
[M:4/4][K:treble] x4[K:bass] x4 |[M:7/8] z2 G,2 z z2 |[M:1/4] x2 |[M:4/4] x8 |[M:3/4] G,,6 |] %28
V:5
 x8 | x8 | x8 | x2[K:bass] x6 | x8 | x8 | x8 | x8 | x8 | x8 | x8 | x8 | x8 | x8 | x8 |[M:7/8] x7 | %16
[M:1/4] x2 |[M:4/4] x8 |[M:3/4] F2 z2 z2 |[M:1/4] x2 |[M:4/4] x8 |[M:3/4] x2[K:bass] x4 | %22
[M:1/4] x3/2[K:treble] x/ |[M:4/4] x8 |[M:7/8] x7 |[M:1/4] x2 |[M:4/4] x8 |[M:3/4] x6 |] %28

